templates/main/build/images/small/present.svg

<svg xmlns="http://www.w3.org/2000/svg" xmlns:xlink="http://www.w3.org/1999/xlink" width="24" height="24" viewBox="0 0 24 24">
  <defs>
    <rect id="hot-b" width="24" height="24" x="0" y="0" rx="2"/>
    <filter id="hot-a" width="150%" height="150%" x="-25%" y="-25%" filterUnits="objectBoundingBox">
      <feOffset in="SourceAlpha" result="shadowOffsetOuter1"/>
      <feGaussianBlur in="shadowOffsetOuter1" result="shadowBlurOuter1" stdDeviation="2"/>
      <feColorMatrix in="shadowBlurOuter1" values="0 0 0 0 0.968627451   0 0 0 0 0   0 0 0 0 0  0 0 0 0.396306818 0"/>
    </filter>
  </defs>
  <g fill="none" fill-rule="evenodd">
    <use fill="#000" filter="url(#hot-a)" xlink:href="#hot-b"/>
    <use fill="#F70000" xlink:href="#hot-b"/>
    <path fill="#FFF" d="M13.0168776,3 C13.0168776,3 13.6413502,5.23628692 13.6413502,7.05063291 C13.6413502,8.78902954 12.5021097,10.1983122 10.7637131,10.1983122 C9.01687764,10.1983122 7.70042194,8.78902954 7.70042194,7.05063291 L7.7257384,6.74683544 C6.02109705,8.7721519 5,11.3966245 5,14.2489451 C5,17.978903 8.02109705,21 11.7510549,21 C15.4810127,21 18.5021097,17.978903 18.5021097,14.2489451 C18.5021097,9.70042194 16.3164557,5.64135021 13.0168776,3 Z M11.7510549,19.3122363 C8.95780591,19.3122363 6.68776371,17.0421941 6.68776371,14.2489451 C6.68776371,12.9578059 6.94092827,11.6835443 7.41350211,10.5105485 C8.26582278,11.3628692 9.44725738,11.8860759 10.7637131,11.8860759 C13.0084388,11.8860759 14.7721519,10.3417722 15.2194093,8.14767932 C16.257384,10.0042194 16.814346,12.0886076 16.814346,14.2489451 C16.814346,17.0421941 14.5443038,19.3122363 11.7510549,19.3122363 Z"/>
    <path fill="#FFA7A7" d="M11.3881857,13.5400844 C10.2405063,13.7763713 9.55696203,14.5189873 9.55696203,15.5738397 C9.55696203,16.7046414 10.4936709,17.6160338 11.6582278,17.6160338 C13.3881857,17.6160338 14.7890295,16.2151899 14.7890295,14.4852321 C14.7890295,13.5822785 14.6624473,12.6962025 14.4008439,11.8523207 C13.7341772,12.7552743 12.5443038,13.3037975 11.3881857,13.5400844 Z"/>
  </g>
</svg>

<svg xmlns="http://www.w3.org/2000/svg" xmlns:xlink="http://www.w3.org/1999/xlink" width="24" height="24"><defs><filter id="a" width="150%" height="150%" x="-25%" y="-25%" filterUnits="objectBoundingBox"><feOffset in="SourceAlpha" result="shadowOffsetOuter1"/><feGaussianBlur in="shadowOffsetOuter1" result="shadowBlurOuter1" stdDeviation="2"/><feColorMatrix in="shadowBlurOuter1" values="0 0 0 0 0.968627451 0 0 0 0 0 0 0 0 0 0 0 0 0 0.396306818 0"/></filter><rect id="b" width="24" height="24" x="0" y="0" rx="2"/></defs><g fill="none" fill-rule="evenodd"><use fill="#000" filter="url(#a)" xlink:href="#b"/><use fill="#F70000" xlink:href="#b"/><path fill="#FFF" d="M13.017 3s.624 2.236.624 4.05c0 1.739-1.139 3.148-2.877 3.148-1.747 0-3.064-1.409-3.064-3.147l.026-.304A11.619 11.619 0 005 14.249 6.75 6.75 0 0011.751 21a6.75 6.75 0 006.751-6.751C18.502 9.7 16.316 5.64 13.017 3zM11.75 19.312a5.067 5.067 0 01-5.063-5.063c0-1.291.253-2.565.726-3.738a4.71 4.71 0 003.35 1.375c2.244 0 4.008-1.544 4.455-3.738a12.465 12.465 0 011.595 6.1 5.067 5.067 0 01-5.063 5.064z"/><path fill="#FFA7A7" d="M11.388 13.54c-1.147.236-1.831.979-1.831 2.034 0 1.13.937 2.042 2.101 2.042a3.13 3.13 0 003.131-3.13 8.9 8.9 0 00-.388-2.634c-.667.903-1.857 1.452-3.013 1.688z"/></g></svg>
